X:1
T:A-Rovin (a)
M:C|
L:1/8
S:Stan Hugill
B:Shanties from the Seven Seas
K:D
A,2|\
D2D2 EFG2|FGFE D2A,2|D3E  F2G2|A6 A2|
B2B2 G2B2|ABAG F2A2 |G2F2 E2DE|F2D2 B,2A,2|
D3E  F2G2|A2dc B2G2 |F4   E4  |D6 A2|
B4   G2B2|A4   F2A2 |G2F2 E2DE|F2D2 B,2A,2|
D3E  F2G2|A2dc B2G2 |F4   E4  |D6 ||
